X: 41600
T: Up Da Stroods
R: reel
M: 4/4
K: Bminor
|:ABBB dBAF|B2BB dBAF|B2BB ABde|faef dBAF:|
|:D2 ag fede|f2 af f2 af|f^gag fede|faef dBAF:|

